SVG_Azure_All/Application Insights Performance.svg

<?xml version="1.0" encoding="UTF-8" standalone="no"?>
<!-- Generated by Microsoft Visio, SVG Export Application Insights Performance.svg Page-1 -->

<svg
   xmlns:dc="http://purl.org/dc/elements/1.1/"
   xmlns:cc="http://creativecommons.org/ns#"
   xmlns:rdf="http://www.w3.org/1999/02/22-rdf-syntax-ns#"
   xmlns:svg="http://www.w3.org/2000/svg"
   xmlns="http://www.w3.org/2000/svg"
   xmlns:sodipodi="http://sodipodi.sourceforge.net/DTD/sodipodi-0.dtd"
   xmlns:inkscape="http://www.inkscape.org/namespaces/inkscape"
   width="0.74608797in"
   height="0.78748071in"
   viewBox="0 0 53.718537 56.698899"
   xml:space="preserve"
   class="st7"
   version="1.1"
   id="svg59"
   sodipodi:docname="Application Insights Performance.svg"
   style="font-size:12px;overflow:visible;color-interpolation-filters:sRGB;fill:none;fill-rule:evenodd;stroke-linecap:square;stroke-miterlimit:3"
   inkscape:version="0.92.5 (2060ec1f9f, 2020-04-08)"><metadata
   id="metadata65"><rdf:RDF><cc:Work
       rdf:about=""><dc:format>image/svg+xml</dc:format><dc:type
         rdf:resource="http://purl.org/dc/dcmitype/StillImage" /></cc:Work></rdf:RDF></metadata><defs
   id="defs63" /><sodipodi:namedview
   pagecolor="#ffffff"
   bordercolor="#666666"
   borderopacity="1"
   objecttolerance="10"
   gridtolerance="10"
   guidetolerance="10"
   inkscape:pageopacity="0"
   inkscape:pageshadow="2"
   inkscape:window-width="640"
   inkscape:window-height="480"
   id="namedview61"
   showgrid="false"
   inkscape:zoom="1.7193066"
   inkscape:cx="35.812321"
   inkscape:cy="23.279613"
   inkscape:window-x="0"
   inkscape:window-y="0"
   inkscape:window-maximized="0"
   inkscape:current-layer="svg59" />
	<style
   type="text/css"
   id="style2">
	<![CDATA[
		.st1 {fill:#59b4d9;stroke:none;stroke-linecap:butt;stroke-width:12.24}
		.st2 {fill:#ffffff;stroke:none;stroke-linecap:butt;stroke-width:12.24}
		.st3 {fill:#3999c6;stroke:none;stroke-linecap:butt;stroke-width:12.24}
		.st4 {fill:#57a300;stroke:none;stroke-linecap:butt;stroke-width:12.24}
		.st5 {fill:#b8d432;stroke:none;stroke-linecap:butt;stroke-width:12.24}
		.st6 {fill:#dadde0;stroke:none;stroke-linecap:butt;stroke-width:12.24}
		.st7 {fill:none;fill-rule:evenodd;font-size:12px;overflow:visible;stroke-linecap:square;stroke-miterlimit:3}
	]]>
	</style>

	<g
   id="g57"
   transform="translate(-12.242223,-12.2354)">
		<title
   id="title4">Page-1</title>
		<g
   id="group9561-1"
   transform="translate(9.27018,-34.0157)">
			<title
   id="title6">Application Insights Performance</title>
			<g
   id="group9562-2">
				<title
   id="title8">Sheet.9562</title>
				<g
   id="shape9563-3"
   transform="translate(0,-11.1789)">
					<title
   id="title10">Sheet.9563</title>
					<path
   d="m 39.45,98.32 c -4.16,3.19 -8.95,4.63 -13.74,4.63 -6.87,0 -13.57,-3.04 -18.04,-8.94 C 0,84.1 1.92,69.73 11.98,62.07 c 4.15,-3.2 8.94,-4.64 13.73,-4.64 6.87,0 13.58,3.04 18.05,8.95 7.66,10.06 5.75,24.27 -4.31,31.94 z"
   class="st1"
   id="path12"
   inkscape:connector-curvature="0"
   style="fill:#59b4d9;stroke:none;stroke-width:12.23999977;stroke-linecap:butt" />
				</g>
				<g
   id="shape9564-5"
   transform="translate(5.90884,-15.4907)">
					<title
   id="title15">Sheet.9564</title>
					<path
   d="m 29.38,88.58 c 1.6,2.07 4.8,2.55 6.87,0.95 l 0.32,-0.32 c 2.24,1.6 3.67,2.56 4.63,3.2 0.32,-0.64 0.48,-1.28 0.64,-1.92 -0.96,-0.64 -2.08,-1.59 -3.83,-3.03 0.64,-1.6 0.32,-3.36 -0.64,-4.63 -1.6,-1.92 -4.15,-2.4 -6.39,-1.28 -2.39,-2.08 -4.79,-4.47 -7.5,-7.19 8.3,-4.47 14.21,-3.83 14.21,-3.83 -0.96,-1.28 -2.08,-2.4 -3.35,-3.35 -3.52,-0.48 -8.95,-0.48 -15.18,2.87 -2.07,-2.23 -4.15,-4.47 -6.38,-7.03 -0.96,0.32 -2.08,0.8 -3.04,1.28 1.6,2.56 3.67,5.27 6.07,7.83 -2.08,1.43 -4.31,3.35 -6.39,5.43 C 9.1,77.88 8.94,78.2 8.62,78.36 7.35,78.04 6.07,78.2 4.95,78.67 2.87,74.2 3.03,70.69 3.35,68.77 2.4,69.73 1.6,70.69 0.96,71.81 0.48,74.04 0.32,77.24 1.92,81.07 0,83.47 0,86.82 1.92,89.37 2.08,89.53 2.24,89.85 2.4,90.01 1.6,92.89 1.12,95.6 1.12,98 c 0.16,0.32 0.16,0.48 0.48,0.8 1.11,1.43 2.39,2.55 3.83,3.67 -0.16,-2.56 0,-6.23 1.6,-10.38 1.11,0.16 2.07,-0.16 3.19,-0.48 0.64,0.48 1.12,0.96 1.92,1.6 2.23,1.75 4.47,3.19 6.54,4.15 -0.15,1.12 0.16,2.23 0.96,3.19 1.6,1.92 4.31,2.4 6.39,0.8 0.48,-0.32 0.8,-0.64 0.96,-1.12 3.51,0.8 6.71,0.96 8.94,0.96 0.32,0 1.92,-2.23 2.88,-3.51 -1.44,0.32 -5.59,0.8 -11.18,-0.8 -0.16,-0.64 -0.32,-1.28 -0.8,-1.76 -1.44,-1.91 -3.99,-2.23 -6.07,-0.95 -1.92,-1.12 -3.99,-2.4 -6.07,-4.16 -0.48,-0.32 -0.8,-0.64 -1.28,-0.96 1.28,-2.07 1.44,-4.63 0.32,-6.86 l 0.8,-0.8 c 2.08,-1.92 4.15,-3.51 5.91,-4.79 l -0.16,-0.16 0.16,0.16 c 2.88,2.55 5.91,5.11 8.63,7.34 -0.96,1.12 -0.8,3.2 0.31,4.64 z"
   class="st2"
   id="path17"
   inkscape:connector-curvature="0"
   style="fill:#ffffff;stroke:none;stroke-width:12.23999977;stroke-linecap:butt" />
				</g>
				<g
   id="shape9565-7"
   transform="translate(43.5976)">
					<title
   id="title20">Sheet.9565</title>
					<path
   d="m 0.16,102.95 h 0.16 c 7.03,0 12.62,-2.08 12.62,-4.63 V 73.88 H 0 v 29.07 z"
   class="st1"
   id="path22"
   inkscape:connector-curvature="0"
   style="fill:#59b4d9;stroke:none;stroke-width:12.23999977;stroke-linecap:butt" />
				</g>
				<g
   id="shape9566-9"
   transform="translate(31.3009)">
					<title
   id="title25">Sheet.9566</title>
					<path
   d="m 0,73.88 v 24.44 c 0,2.55 5.59,4.63 12.62,4.63 V 73.88 Z"
   class="st3"
   id="path27"
   inkscape:connector-curvature="0"
   style="fill:#3999c6;stroke:none;stroke-width:12.23999977;stroke-linecap:butt" />
				</g>
				<g
   id="shape9567-11"
   transform="translate(31.4606,-24.4338)">
					<title
   id="title30">Sheet.9567</title>
					<path
   d="m 25.23,98.32 c 0,2.55 -5.59,4.63 -12.61,4.63 C 5.59,102.95 0,100.87 0,98.32 c 0,-2.56 5.59,-4.63 12.62,-4.63 6.86,0 12.61,2.07 12.61,4.63 z"
   class="st2"
   id="path32"
   inkscape:connector-curvature="0"
   style="fill:#ffffff;stroke:none;stroke-width:12.23999977;stroke-linecap:butt" />
				</g>
				<g
   id="shape9568-13"
   transform="translate(34.0157,-26.3502)">
					<title
   id="title35">Sheet.9568</title>
					<path
   d="m 20.12,99.91 c 0,1.76 -4.47,3.04 -10.06,3.04 C 4.47,102.95 0,101.67 0,99.91 c 0,-1.75 4.47,-3.03 10.06,-3.03 5.59,0 10.06,1.44 10.06,3.03 z"
   class="st4"
   id="path37"
   inkscape:connector-curvature="0"
   style="fill:#57a300;stroke:none;stroke-width:12.23999977;stroke-linecap:butt" />
				</g>
				<g
   id="shape9569-15"
   transform="translate(33.856,-27.4681)">
					<title
   id="title40">Sheet.9569</title>
					<path
   d="m 18.05,102.95 c 1.27,-0.48 2.07,-1.12 2.07,-1.92 C 20.12,99.28 15.65,98 10.06,98 4.47,98 0,99.28 0,101.03 c 0,0.64 0.8,1.28 2.08,1.92 1.91,-0.64 4.79,-1.12 7.98,-1.12 3.35,-0.16 6.23,0.48 7.99,1.12 z"
   class="st5"
   id="path42"
   inkscape:connector-curvature="0"
   style="fill:#b8d432;stroke:none;stroke-width:12.23999977;stroke-linecap:butt" />
				</g>
				<g
   id="shape9570-17"
   transform="translate(15.1713,-3.35367)">
					<title
   id="title45">Sheet.9570</title>
					<path
   d="m 28.91,95.76 c -1.6,0 -2.88,1.12 -3.36,2.56 H 12.3 C 6.71,98.32 2.08,93.69 2.08,88.1 H 0 c 0,6.7 5.59,12.29 12.3,12.29 h 13.25 c 0.48,1.44 1.76,2.56 3.36,2.56 1.91,0 3.51,-1.6 3.51,-3.51 0,-2.08 -1.6,-3.68 -3.51,-3.68 z"
   class="st6"
   id="path47"
   inkscape:connector-curvature="0"
   style="fill:#dadde0;stroke:none;stroke-width:12.23999977;stroke-linecap:butt" />
				</g>
				<g
   id="shape9571-19"
   transform="translate(15.1713,-17.8862)">
					<title
   id="title50">Sheet.9571</title>
					<rect
   x="0"
   y="96.560699"
   width="2.0760801"
   height="6.3879299"
   class="st6"
   id="rect52"
   style="fill:#dadde0;stroke:none;stroke-width:12.23999977;stroke-linecap:butt" />
				</g>
			</g>
		</g>
	</g>
</svg>

<?xml version="1.0" encoding="UTF-8" standalone="no"?>
<!DOCTYPE svg PUBLIC "-//W3C//DTD SVG 1.1//EN" "http://www.w3.org/Graphics/SVG/1.1/DTD/svg11.dtd">
<!-- Generated by Microsoft Visio, SVG Export Application Insights Performance.svg Page-1 -->
<svg xmlns="http://www.w3.org/2000/svg" xmlns:xlink="http://www.w3.org/1999/xlink" xmlns:ev="http://www.w3.org/2001/xml-events"
		width="1.08615in" height="1.42984in" viewBox="0 0 78.2031 102.949" xml:space="preserve" color-interpolation-filters="sRGB"
		class="st7">
	<style type="text/css">
	<![CDATA[
		.st1 {fill:#59b4d9;stroke:none;stroke-linecap:butt;stroke-width:12.24}
		.st2 {fill:#ffffff;stroke:none;stroke-linecap:butt;stroke-width:12.24}
		.st3 {fill:#3999c6;stroke:none;stroke-linecap:butt;stroke-width:12.24}
		.st4 {fill:#57a300;stroke:none;stroke-linecap:butt;stroke-width:12.24}
		.st5 {fill:#b8d432;stroke:none;stroke-linecap:butt;stroke-width:12.24}
		.st6 {fill:#dadde0;stroke:none;stroke-linecap:butt;stroke-width:12.24}
		.st7 {fill:none;fill-rule:evenodd;font-size:12px;overflow:visible;stroke-linecap:square;stroke-miterlimit:3}
	]]>
	</style>

	<g>
		<title>Page-1</title>
		<g id="group9356-1" transform="translate(9.27018,-34.0157)">
			<title>Application Insights Performance</title>
			<g id="group9357-2">
				<title>Sheet.9357</title>
				<g id="shape9358-3" transform="translate(-2.8777E-13,-11.1789)">
					<title>Sheet.9358</title>
					<path d="M39.45 98.32 C35.29 101.51 30.5 102.95 25.71 102.95 C18.84 102.95 12.14 99.91 7.67 94.01 C0 84.1 1.92
								 69.73 11.98 62.07 C16.13 58.87 20.92 57.43 25.71 57.43 C32.58 57.43 39.29 60.47 43.76 66.38 C51.42
								 76.44 49.51 90.65 39.45 98.32 Z" class="st1"/>
				</g>
				<g id="shape9359-5" transform="translate(5.90884,-15.4907)">
					<title>Sheet.9359</title>
					<path d="M29.38 88.58 C30.98 90.65 34.18 91.13 36.25 89.53 L36.57 89.21 C38.81 90.81 40.24 91.77 41.2 92.41 C41.52
								 91.77 41.68 91.13 41.84 90.49 C40.88 89.85 39.76 88.9 38.01 87.46 C38.65 85.86 38.33 84.1 37.37
								 82.83 C35.77 80.91 33.22 80.43 30.98 81.55 C28.59 79.47 26.19 77.08 23.48 74.36 C31.78 69.89 37.69
								 70.53 37.69 70.53 C36.73 69.25 35.61 68.13 34.34 67.18 C30.82 66.7 25.39 66.7 19.16 70.05 C17.09
								 67.82 15.01 65.58 12.78 63.02 C11.82 63.34 10.7 63.82 9.74 64.3 C11.34 66.86 13.41 69.57 15.81 72.13
								 C13.73 73.56 11.5 75.48 9.42 77.56 C9.1 77.88 8.94 78.2 8.62 78.36 C7.35 78.04 6.07 78.2 4.95 78.67
								 C2.87 74.2 3.03 70.69 3.35 68.77 C2.4 69.73 1.6 70.69 0.96 71.81 C0.48 74.04 0.32 77.24 1.92 81.07
								 C0 83.47 0 86.82 1.92 89.37 C2.08 89.53 2.24 89.85 2.4 90.01 C1.6 92.89 1.12 95.6 1.12 98 C1.28
								 98.32 1.28 98.48 1.6 98.8 C2.71 100.23 3.99 101.35 5.43 102.47 C5.27 99.91 5.43 96.24 7.03 92.09
								 C8.14 92.25 9.1 91.93 10.22 91.61 C10.86 92.09 11.34 92.57 12.14 93.21 C14.37 94.96 16.61 96.4 18.68
								 97.36 C18.53 98.48 18.84 99.59 19.64 100.55 C21.24 102.47 23.95 102.95 26.03 101.35 C26.51 101.03
								 26.83 100.71 26.99 100.23 C30.5 101.03 33.7 101.19 35.93 101.19 C36.25 101.19 37.85 98.96 38.81
								 97.68 C37.37 98 33.22 98.48 27.63 96.88 C27.47 96.24 27.31 95.6 26.83 95.12 C25.39 93.21 22.84 92.89
								 20.76 94.17 C18.84 93.05 16.77 91.77 14.69 90.01 C14.21 89.69 13.89 89.37 13.41 89.05 C14.69 86.98
								 14.85 84.42 13.73 82.19 L14.53 81.39 C16.61 79.47 18.68 77.88 20.44 76.6 L20.28 76.44 L20.44 76.6
								 C23.32 79.15 26.35 81.71 29.07 83.94 C28.11 85.06 28.27 87.14 29.38 88.58 Z" class="st2"/>
				</g>
				<g id="shape9360-7" transform="translate(43.5976,2.84217E-13)">
					<title>Sheet.9360</title>
					<path d="M0.16 102.95 L0.32 102.95 C7.35 102.95 12.94 100.87 12.94 98.32 L12.94 73.88 L0 73.88 L0 102.95 L0.16
								 102.95 Z" class="st1"/>
				</g>
				<g id="shape9361-9" transform="translate(31.3009,2.84217E-13)">
					<title>Sheet.9361</title>
					<path d="M0 73.88 L0 98.32 C0 100.87 5.59 102.95 12.62 102.95 L12.62 73.88 L0 73.88 Z" class="st3"/>
				</g>
				<g id="shape9362-11" transform="translate(31.4606,-24.4338)">
					<title>Sheet.9362</title>
					<path d="M25.23 98.32 C25.23 100.87 19.64 102.95 12.62 102.95 C5.59 102.95 0 100.87 0 98.32 C0 95.76 5.59 93.69
								 12.62 93.69 C19.48 93.69 25.23 95.76 25.23 98.32 Z" class="st2"/>
				</g>
				<g id="shape9363-13" transform="translate(34.0157,-26.3502)">
					<title>Sheet.9363</title>
					<path d="M20.12 99.91 C20.12 101.67 15.65 102.95 10.06 102.95 C4.47 102.95 0 101.67 0 99.91 C0 98.16 4.47 96.88
								 10.06 96.88 C15.65 96.88 20.12 98.32 20.12 99.91 Z" class="st4"/>
				</g>
				<g id="shape9364-15" transform="translate(33.856,-27.4681)">
					<title>Sheet.9364</title>
					<path d="M18.05 102.95 C19.32 102.47 20.12 101.83 20.12 101.03 C20.12 99.28 15.65 98 10.06 98 C4.47 98 0 99.28
								 0 101.03 C0 101.67 0.8 102.31 2.08 102.95 C3.99 102.31 6.87 101.83 10.06 101.83 C13.41 101.67 16.29
								 102.31 18.05 102.95 Z" class="st5"/>
				</g>
				<g id="shape9365-17" transform="translate(15.1713,-3.35367)">
					<title>Sheet.9365</title>
					<path d="M28.91 95.76 C27.31 95.76 26.03 96.88 25.55 98.32 L12.3 98.32 C6.71 98.32 2.08 93.69 2.08 88.1 L0 88.1
								 C0 94.8 5.59 100.39 12.3 100.39 L25.55 100.39 C26.03 101.83 27.31 102.95 28.91 102.95 C30.82 102.95
								 32.42 101.35 32.42 99.44 C32.42 97.36 30.82 95.76 28.91 95.76 Z" class="st6"/>
				</g>
				<g id="shape9366-19" transform="translate(15.1713,-17.8862)">
					<title>Sheet.9366</title>
					<rect x="0" y="96.5607" width="2.07608" height="6.38793" class="st6"/>
				</g>
			</g>
		</g>
	</g>
</svg>
